svgs/duotone/transporter-5.svg

<svg xmlns="http://www.w3.org/2000/svg" viewBox="0 0 512 512"><!-- Font Awesome Pro 6.0.0-alpha2 by @fontawesome - https://fontawesome.com License - https://fontawesome.com/license (Commercial License) --><defs><style>.fa-secondary{opacity:.4}</style></defs><path d="M509.75 44.375L480 32L467.625 2.25C466.875 0.875 465.5 0 464 0S461.125 0.875 460.375 2.25L448 32L418.25 44.375C416.875 45.125 416 46.5 416 48S416.875 50.875 418.25 51.625L448 64L460.375 93.75C461.125 95.125 462.5 96 464 96S466.875 95.125 467.625 93.75L480 64L509.75 51.625C511.125 50.875 512 49.5 512 48S511.125 45.125 509.75 44.375ZM93.75 172.375L64 160L51.625 130.25C50.875 128.875 49.5 128 48 128S45.125 128.875 44.375 130.25L32 160L2.25 172.375C0.875 173.125 0 174.5 0 176S0.875 178.875 2.25 179.625L32 192L44.375 221.75C45.125 223.125 46.5 224 48 224S50.875 223.125 51.625 221.75L64 192L93.75 179.625C95.125 178.875 96 177.5 96 176S95.125 173.125 93.75 172.375ZM224 32H288C296.844 32 304 24.844 304 16S296.844 0 288 0H224C215.156 0 208 7.156 208 16S215.156 32 224 32ZM176 160H336C344.844 160 352 152.844 352 144S344.844 128 336 128H176C167.156 128 160 135.156 160 144S167.156 160 176 160ZM400 256H112C103.156 256 96 263.156 96 272S103.156 288 112 288H400C408.844 288 416 280.844 416 272S408.844 256 400 256ZM176 416H336C344.844 416 352 408.844 352 400S344.844 384 336 384H176C167.156 384 160 391.156 160 400S167.156 416 176 416Z" class="fa-secondary"/><path d="M384 448H128C110.375 448 96 462.375 96 480V512H416V480C416 462.375 401.625 448 384 448Z" class="fa-primary"/></svg>

<svg xmlns="http://www.w3.org/2000/svg" viewBox="0 0 512 512"><!--! Font Awesome Pro 6.3.0 by @fontawesome - https://fontawesome.com License - https://fontawesome.com/license (Commercial License) Copyright 2023 Fonticons, Inc. --><defs><style>.fa-secondary{opacity:.4}</style></defs><path class="fa-primary" d="M384 448H128c-17.62 0-32 14.38-32 32v32h320v-32C416 462.4 401.6 448 384 448z"/><path class="fa-secondary" d="M509.8 44.38L480 32l-12.38-29.75C466.9 .875 465.5 0 464 0s-2.875 .875-3.625 2.25L448 32l-29.75 12.38C416.9 45.13 416 46.5 416 48s.875 2.875 2.25 3.625L448 64l12.38 29.75C461.1 95.13 462.5 96 464 96s2.875-.875 3.625-2.25L480 64l29.75-12.38C511.1 50.88 512 49.5 512 48S511.1 45.13 509.8 44.38zM93.75 172.4L64 160L51.63 130.3C50.88 128.9 49.5 128 48 128S45.13 128.9 44.38 130.3L32 160L2.25 172.4C.875 173.1 0 174.5 0 176s.875 2.875 2.25 3.625L32 192l12.38 29.75C45.13 223.1 46.5 224 48 224s2.875-.875 3.625-2.25L64 192l29.75-12.38C95.13 178.9 96 177.5 96 176S95.13 173.1 93.75 172.4zM224 32h64c8.844 0 16-7.156 16-16S296.8 0 288 0H224C215.2 0 208 7.156 208 16S215.2 32 224 32zM176 160h160C344.8 160 352 152.8 352 144S344.8 128 336 128h-160C167.2 128 160 135.2 160 144S167.2 160 176 160zM400 256h-288C103.2 256 96 263.2 96 272S103.2 288 112 288h288C408.8 288 416 280.8 416 272S408.8 256 400 256zM176 416h160c8.844 0 16-7.156 16-16S344.8 384 336 384h-160C167.2 384 160 391.2 160 400S167.2 416 176 416z"/></svg>
